brandFactory_export/2.Regular/WiFi_2Regular.svg

<?xml version="1.0" encoding="UTF-8"?>
<svg width="24px" height="24px" viewBox="0 0 24 24" version="1.1" xmlns="http://www.w3.org/2000/svg" xmlns:xlink="http://www.w3.org/1999/xlink">
    <title>2.Regular/WiFi_2Regular</title>
    <g id="Symbols" stroke="none" stroke-width="1" fill="none" fill-rule="evenodd">
        <g id="2.Regular/WiFi_2Regular" fill="#5CB615" fill-rule="nonzero">
            <path d="M11.8285714,16.4369748 C12.6319328,16.4369748 13.2705882,16.6588235 13.7277311,17.0991597 C14.2016807,17.5563025 14.4436975,18.2151261 14.4436975,19.0521008 C14.4436975,19.8890756 14.2016807,20.5478992 13.7277311,21.005042 C13.2739496,21.4453782 12.6352941,21.6672269 11.8285714,21.6672269 C11.0252101,21.6672269 10.3865546,21.4453782 9.92941176,21.005042 C9.45546218,20.5478992 9.21344538,19.8890756 9.21344538,19.0521008 C9.21344538,18.2151261 9.45546218,17.5563025 9.92941176,17.0991597 C10.3865546,16.6588235 11.0252101,16.4369748 11.8285714,16.4369748 Z M11.8285714,17.7815126 C10.9277311,17.7815126 10.5579832,18.1512605 10.5579832,19.0521008 C10.5579832,19.9529412 10.9277311,20.3226891 11.8285714,20.3226891 C12.7294118,20.3226891 13.0991597,19.9529412 13.0991597,19.0521008 C13.0991597,18.5915966 12.9983193,18.2621849 12.7932773,18.0672269 C12.5983193,17.8756303 12.2756303,17.7815126 11.8285714,17.7815126 Z M11.8722689,11.8352941 C12.9613445,11.8352941 14.0201681,12.0504202 15.0184874,12.4705882 C15.9394958,12.8571429 16.7731092,13.4117647 17.4957983,14.1109244 C17.7613445,14.3697479 17.7680672,14.7966387 17.5092437,15.0621849 C17.2504202,15.3277311 16.8235294,15.3344538 16.5579832,15.0756303 C15.9563025,14.4907563 15.2605042,14.0302521 14.4941176,13.707563 C13.6638655,13.3546218 12.7798319,13.1764706 11.8722689,13.1764706 C10.9411765,13.1764706 10.0403361,13.3613445 9.19663866,13.7277311 C8.41680672,14.0638655 7.71428571,14.5445378 7.1092437,15.1495798 C6.97815126,15.287395 6.80672269,15.3512605 6.63193277,15.3512605 C6.4605042,15.3512605 6.28907563,15.2840336 6.15798319,15.1529412 C5.89579832,14.8907563 5.89579832,14.4638655 6.15798319,14.2016807 C6.88403361,13.4756303 7.72436975,12.9008403 8.66218487,12.497479 C9.67731092,12.0571429 10.7596639,11.8352941 11.8722689,11.8352941 Z M11.8789916,6.93781513 C13.5294118,6.93781513 15.1294118,7.2605042 16.6420168,7.89579832 C18.0705882,8.49747899 19.3546218,9.3512605 20.4638655,10.4403361 C20.7294118,10.6991597 20.7327731,11.1260504 20.4739496,11.3915966 C20.2151261,11.6571429 19.7882353,11.6605042 19.5226891,11.4016807 C18.5344538,10.4336134 17.3915966,9.67058824 16.1210084,9.13613445 C14.7764706,8.56806723 13.3478992,8.28235294 11.8789916,8.28235294 C10.389916,8.28235294 8.94789916,8.57478992 7.59327731,9.15294118 C6.3092437,9.70084034 5.15294118,10.4806723 4.15798319,11.4689076 L4.14453782,11.4823529 C4.01344538,11.6134454 3.84201681,11.6806723 3.66722689,11.6806723 C3.49579832,11.6806723 3.32773109,11.6168067 3.19663866,11.4890756 C2.93109244,11.2302521 2.92773109,10.8033613 3.18991597,10.5378151 L3.21344538,10.5142857 C4.32941176,9.40504202 5.62689076,8.53109244 7.06554622,7.91596639 C8.58823529,7.26722689 10.2084034,6.93781513 11.8789916,6.93781513 Z M11.8823529,2.0302521 C14.0907563,2.0302521 16.2386555,2.4605042 18.2621849,3.31092437 C20.194958,4.12436975 21.9361345,5.28403361 23.4285714,6.75630252 C23.6941176,7.01848739 23.697479,7.44201681 23.4352941,7.70756303 C23.1731092,7.97310924 22.7495798,7.97647059 22.4840336,7.71428571 C21.112605,6.36302521 19.5159664,5.29747899 17.7411765,4.5512605 C15.8823529,3.77142857 13.9092437,3.37478992 11.8823529,3.37478992 C9.83529412,3.37478992 7.85546218,3.77478992 5.98991597,4.56470588 C4.19831933,5.32436975 2.58487395,6.40672269 1.19663866,7.78823529 L1.17647059,7.80840336 C1.04537815,7.9394958 0.87394958,8.00672269 0.702521008,8.00672269 C0.531092437,8.00672269 0.359663865,7.94285714 0.228571428,7.81176471 C-0.0336134455,7.54957983 -0.0336134455,7.12268908 0.228571428,6.8605042 L0.248739496,6.83697479 C1.76134454,5.33445378 3.51596639,4.15462185 5.46554622,3.32773109 C7.49579832,2.46722689 9.65378151,2.0302521 11.8823529,2.0302521 Z" id="WiFi_2Regular"></path>
        </g>
    </g>
</svg>

<svg width="24" height="24" viewBox="0 0 24 24" xmlns="http://www.w3.org/2000/svg"><path d="M11.829 16.437c.803 0 1.442.222 1.899.662.474.457.716 1.116.716 1.953s-.242 1.496-.716 1.953c-.454.44-1.093.662-1.9.662-.803 0-1.441-.222-1.899-.662-.474-.457-.716-1.116-.716-1.953s.242-1.496.716-1.953c.458-.44 1.096-.662 1.9-.662zm0 1.345c-.901 0-1.271.37-1.271 1.27s.37 1.27 1.27 1.27c.901 0 1.271-.37 1.271-1.27 0-.46-.1-.79-.306-.985-.195-.191-.517-.285-.964-.285zm.043-5.947a8.07 8.07 0 015.624 2.276.674.674 0 01-.938.965 6.66 6.66 0 00-2.064-1.368 6.67 6.67 0 00-2.622-.532A6.691 6.691 0 007.11 15.15a.648.648 0 01-.477.202.674.674 0 01-.474-1.15 7.998 7.998 0 012.504-1.704 8.026 8.026 0 013.21-.662zm.007-4.897a12.227 12.227 0 018.585 3.502.674.674 0 01-.941.962 10.858 10.858 0 00-3.402-2.266 10.843 10.843 0 00-4.242-.854c-1.49 0-2.931.293-4.286.87a10.962 10.962 0 00-3.435 2.317l-.013.013a.672.672 0 01-.955-.944l.023-.024a12.307 12.307 0 013.853-2.598 12.214 12.214 0 014.813-.978zm.003-4.908c2.209 0 4.357.43 6.38 1.28a16.37 16.37 0 015.167 3.446.67.67 0 01.006.952.67.67 0 01-.951.006 15.072 15.072 0 00-10.602-4.34c-2.047 0-4.027.4-5.892 1.19a15.146 15.146 0 00-4.793 3.224l-.02.02a.67.67 0 11-.948-.947l.02-.024a16.53 16.53 0 015.217-3.51 16.35 16.35 0 016.416-1.297z" fill="#5CB615" fill-rule="nonzero"/></svg>
